X:1800
T:Hunt, The
T:An Seilg
C:"collected by Cronin"
S:1800 O'Neill's Music of Ireland
N::2nd Setting
N:Tilde (~) used for trills
B:O'Neill's 1800
Z:Transcribed by Robert Thorpe (thorpe@skep.com)
Z:ABCMUS 1.0
M:C|
L:1/8
K:G
D2|GABG AGEG|~c2 c-e dcBA|GABA GEDE|EAAG AcBA|
GABG AGEG|~c2 c-e dcBA|GABA GEDE|G2 GG G2:|
|:D2|GABc d2 d-e|=f2 f2 f2 e-d|e2 e2 efge|d2 de d2 c-B|
cBcd edcB|A2 AB A2 G2|g2 g2 gedB|A2 AB A2 G-E|
GABG AGEG|~c2 c-e dcBA|GABA GEDE|G2 GG G2:|


